!!!!SEGMENT: pl-kk--kk-i-636--003-002_anonim--in-sabbato-sancto-responsorium-1mum.krn
!!!cenid: 18xx:4548
!!!COM: Anonim
!!!COM-rismID: pe30004985
!!!CDT:
!!!CNT:
!!!OPR: In Sabbato Sancto
!!!OTL: Responsorium 1mum
!!!OMV: 002
!!!PDT:
!!!AGN: Sacred
!!!YEC: Copyright 2022 Narodowy Instytut Fryderyka Chopina (https://polishscores.org)
!!!YEM: License CC-BY-4.0 (https://creativecommons.org/licenses/by/4.0)
!!!SMS-siglum: PL-Kk
!!!SMS-shelfmark: Kk.I.636
!!!SMS-variant:
!!!SMS-altvar:
!!!SMS-shelfwork: 003-002 M
!!!NIFC-rismSourceID: 1001216440
!!!NIFC-rismChildID: 1001216927
!!!NIFC-islandoraID: pl-kk:40786
!!!URL-pdf-islandora: https://repozytorium.nifc.pl/islandora/object/pl-kk%3A40786/datastream/PDF/view
!!!URL-scan: https://polish.musicsources.pl/pl/lokalizacje/galeria/rekopisy/7271/1 @EN{Scan on Polish Music Sources Website} @PL{Skany w portalu Dziedzictwo Muzyki Polskiej w otwartym dostępie}
!!!IIIF:
!!!ONB-nifc: UWAGA: Lamentacje i Responsoria In Sabbato Sancto na skanach: S – 15-20, A – 37-42, T – 60-66, B - 86-92. Każda Lamentacja i Responsorium to oddzielne pliki.
!!!AIN: 1 bass
!!!key:
**kern	**text	**dynam	**kernyy	**text	**kernyy	**text	**kernyy	**text
*part4	*part4	*part4	*part3	*part3	*part2	*part2	*part1	*part1
*staff4	*staff4	*	*staff3	*staff3	*staff2	*staff2	*staff1	*staff1
*I"Basso	*	*	*I"Tenore	*	*I"Alto	*	*I"Soprano	*
*I'B.	*	*	*I'T.	*	*I'A.	*	*I'S.	*
*Ibass	*	*	*Itenor	*	*Ialto	*	*Isoprn	*
*ICvox	*	*	*ICvox	*	*ICvox	*	*ICvox	*
*clefF4	*	*	*clefC4	*	*clefC3	*	*clefC1	*
*k[]	*	*	*k[]	*	*k[]	*	*k[]	*
*a:	*	*	*a:	*	*a:	*	*a:	*
*M4/4	*	*	*M4/4	*	*M4/4	*	*M4/4	*
*met(c)	*	*	*met(c)	*	*met(c)	*	*met(c)	*
=1	=1	=1	=1	=1	=1	=1	=1	=1
4C/	Si-	.	4c\	Si-	4e\	Si-	4g\	Si-
4C/	-cut	.	4c\	-cut	4e\	-cut	4g\	-cut
4F\	o-	.	4.c\	o-	8.f\L	o-	4.a\	o-
.	.	.	.	.	16g\Jk	.	.	.
4F\	-vis	.	.	.	4a\	-vis	.	.
.	.	.	8d\	-vis	.	.	8b\	-vis
!LO:LB:g=original	!	!	!LO:LB:g=original	!	!LO:LB:g=original	!	!LO:LB:g=original	!
=2	=2	=2	=2	=2	=2	=2	=2	=2
8E\	ad	.	8e\	ad	8g\	ad	8cc\	ad
8E\	oc-	.	8e\	oc-	8g\	oc-	8cc\	oc-
8E\	-ci-	.	8e\	-ci-	8g\	-ci-	8cc\	-ci-
8F\	-si-	.	8e\	-si-	8g\	-si-	8cc\	-si-
4G\	-o-	.	8d\L	-o-	4g\	-o-	8b\	-o-
.	.	.	8B\J	.	.	.	8g\	-nem
4E\	-nem	.	4G/	-nem	4g\	-nem	[4cc\	du-
=3	=3	=3	=3	=3	=3	=3	=3	=3
4.D\	du-	.	4A\	duc-	4.f\	duc-	4cc\]	.
.	.	.	8G/L	-tus	.	.	4b\	-ctus
8D\	-ctus	.	8F/J	.	8f\	-tus	.	.
*	*	*	*2\right	*	*	*	*	*
4C/	est,	.	2G/	est	4e\	est	4cc\	est
[4c\	et	.	.	.	[4e\	et	[4g\	et
=4	=4	=4	=4	=4	=4	=4	=4	=4
4c\]	.	.	4c\	et	4e\]	.	4g\]	.
4c\	dum	.	4c\	dum	4e\	dum	4g\	dum
*2\right	*	*	*	*	*2\right	*	*	*
2B\	ma-	.	2d\	ma-	2f\	ma-	4.g#X\	ma-
.	.	.	.	.	.	.	16a\LL	.
.	.	.	.	.	.	.	(16b\JJ	.
!LO:LB:g=original	!	!	!LO:LB:g=original	!	!LO:LB:g=original	!	!LO:LB:g=original	!
=5	=5	=5	=5	=5	=5	=5	=5	=5
2A\	-le	.	2d#X\	-le	4f#X\	-le	4cc\)	.
.	.	.	.	.	2f#X\	tra-	4cc\	-le
4G#X\	tra-	.	4.e\	tra-	.	.	[2b\	tra-
4G#\	-cta-	.	.	.	4e\	-cta-	.	.
.	.	.	8dn\	-cta-	.	.	.	.
=6	=6	=6	=6	=6	=6	=6	=6	=6
2A\	-re-	.	2c\	-re-	2e\	-re-	8b\]	.
.	.	.	.	.	.	.	16a\LL	-cta-
.	.	.	.	.	.	.	16g#X\JJ	.
.	.	.	.	.	.	.	4a\	-re-
4E\	-tur,	.	4B\	-tur	2e\	-tur	4g#\	-tur
[4E\	non	.	[4G#X/	non	.	.	[4b\	non
=7	=7	=7	=7	=7	=7	=7	=7	=7
4E\]	.	.	8G#X/L]	.	2r	.	4b\]	.
.	.	.	8A/J	.	.	.	.	.
4D\	a-	.	4B\	a-	.	.	4g#X\	a-
4.C/	-pe-	.	4B\	-pe-	[2e\	non	4.a\	-pe-
.	.	.	8A/L	-ru-	.	.	.	.
8BB/	-ru-	.	8G#X/J	.	.	.	8e/	-ru-
!	!	!	!	!	!	!	!LO:LB:g=original	!
=8	=8	=8	=8	=8	=8	=8	=8	=8
*	*	*	*	*	*	*	*2\right	*
4AA/	-it,	.	4A\	-it,	8e\L]	.	2e/	-it
.	.	.	.	.	8f\J	.	.	.
2A\	non	.	4.c\	non	8e\L	a-	.	.
.	.	.	.	.	8d\J	.	.	.
.	.	.	.	.	8.c/	-pe-	4ee\	non
.	.	.	8d\	.	.	.	.	.
.	.	.	.	.	16B/	-ru-	.	.
4G\	a-	.	4e\	a-	4A/	-it	4cc#X\	a-
!LO:LB:g=original	!	!	!LO:LB:g=original	!	!LO:LB:g=original	!	!	!
=9	=9	=9	=9	=9	=9	=9	=9	=9
4.F\	-pe-	.	4e\	-pe-	4.a\	non	4.dd\	-pe-
.	.	.	8d\L	-ru-	.	.	.	.
8E\	-ru-	.	8c#X\J	.	8g\	a-	8a\	-ru-
4D\	-it	.	4d\	-it	8f\	-pe-	4a\	-it
.	.	.	.	.	8g\	-ru-	.	.
4F\	os	.	4A\	os	8a\	-it	4dd\	os
.	.	.	.	.	8a\	os	.	.
=10	=10	=10	=10	=10	=10	=10	=10	=10
2E\	su-	.	2e\	su-	(4a\	su-	2b\	su-
.	.	.	.	.	4g#X\)	.	.	.
4AA/	-um,	.	4e\	-um,	4a\	-um,	4cc\	-um,
[4C/	tra-	.	[4e\	tra-	[4gn\	tra-	[4cc\	tra-
=11	=11	=11	=11	=11	=11	=11	=11	=11
8C/]	.	.	8e\]	.	8g\]	.	8cc\]	.
8C/	-di-	.	8e\	-di-	8g\	-di-	8cc\	-di-
4C/	-tus	.	4e\	-tus	4g\	-tus	4cc\	-tus
4G\	est,	.	4d\	est,	4g\	est,	4b\	est,
[4E\	tra-	.	[4e\	tra-	[4g#X\	tra-	[4b\	tra-
!LO:LB:g=original	!	!	!LO:LB:g=original	!	!LO:LB:g=original	!	!LO:LB:g=original	!
=12	=12	=12	=12	=12	=12	=12	=12	=12
8E\]	.	.	8e\]	.	8g#X\]	.	8b\]	.
8E\	-di-	.	8e\	-di-	8g#\	-di-	8b\	-di-
4E\	-tus	.	4e\	-tus	4g#\	-tus	4b\	-tus
4A\	est	.	8e\L	est	4a\	est	4cc\	est
.	.	.	8d\J	.	.	.	.	.
4A\	ad	.	8c\L	ad	4e\	ad	4cc\	ad
.	.	.	8B\J	.	.	.	.	.
=13	=13	=13	=13	=13	=13	=13	=13	=13
2F\	mor-	.	4c\	mor-	2d#X\	mor-	2a\	mor-
.	.	.	8B\L	.	.	.	.	.
.	.	.	8A\J	.	.	.	.	.
2E\	-tem,	.	2B\	-tem,	2e\	-tem.	2g#X\	-tem
=14	=14	=14	=14	=14	=14||	=14	=14	=14
!LO:TX:a:t=2.	!	!	!LO:TX:a:t=2.	!	!	!	!	!
0r	.	.	0r	.	2r	.	8cc\	ut
.	.	.	.	.	.	.	8cc\	vi-
.	.	.	.	.	.	.	8cc\	-vi-
.	.	.	.	.	.	.	8b\	-fi-
.	.	.	.	.	8f\	ut	4a\	-ca-
.	.	.	.	.	8f\	vi-	.	.
.	.	.	.	.	8f\	-vi-	4a\	-ret
.	.	.	.	.	8e\	-fi-	.	.
!	!	!	!	!	!	!	!LO:LB:g=original	!
=15	=15	=15	=15	=15	=15	=15	=15	=15
.	.	.	.	.	4d\	-ca-	4dd\	po-
.	.	.	.	.	4d\	-ret	8dd\	-pu-
.	.	.	.	.	.	.	8cc\	-lum
!	!	!	!	!	!LO:LB:g=original	!	!	!
.	.	.	.	.	4g\	po-	4b\	su-
.	.	.	.	.	8g\	-pu-	4b\	-um
.	.	.	.	.	8f\	-lum	.	.
=16	=16	=16	=16	=16	=16	=16	=16	=16
2r	.	.	8c\	ut	4e\	su-	8ee\	ut
.	.	.	8c\	vi-	.	.	8ee\	vi-
.	.	.	8c\	-vi-	4e\	-um,	8ee\	-vi-
.	.	.	8B\	-fi-	.	.	8dd\	-fi-
!	!	!	!LO:LB:g=original	!	!	!	!	!
8F\	ut	.	4A\	-ca-	8a\	ut	4cc\	-ca-
8F\	vi-	.	.	.	8a\	vi-	.	.
8F\	-vi-	.	4A\	-ret	8a\	-vi-	4cc\	-ret
8E\	-fi-	.	.	.	8g\	-fi-	.	.
!LO:LB:g=original	!	!	!	!	!	!	!	!
=17	=17	=17	=17	=17	=17	=17	=17	=17
4D\	-ca-	.	4d\	po-	4f\	-ca-	4ff\	po-
4D\	-ret	.	8d\	-pu-	4f\	-ret	8ff\	-pu-
.	.	.	8d\	-lum	.	.	8ee\	-lum
4G\	po-	.	4B\	su-	4g\	po-	4dd\	su-
8G\	-pu-	.	4B\	-um	8g\	-pu-	4dd\	-um
8F\	-lum	.	.	.	8g\	-lum	.	.
!	!	!	!	!	!LO:LB:g=original	!	!LO:LB:g=original	!
=18	=18	=18	=18	=18	=18	=18	=18	=18
4E\	su-	.	8r	.	4g\	su-	8r	.
.	.	.	8B\	vi-	.	.	8ee\	vi-
8E\	-um,	.	8B\	-vi-	8g\	-um,	8ee\	-vi-
8E\	vi-	.	8B\	-fi-	8g\	vi-	8ee\	-fi-
8A\	-vi-	.	4c\	-ca-	8e\	-vi-	4cc\	-ca-
8A\	-fi-	.	.	.	8e\	-fi-	.	.
8F\	-ca-	.	4A\	-ret	8f\	-ca-	4dd\	-ret
8F\	-ret	.	.	.	8f\	-ret	.	.
!LO:LB:g=original	!	!	!LO:LB:g=original	!	!	!	!	!
=19	=19	=19	=19	=19	=19	=19	=19	=19
4G\	po-	.	4G/	po-	4d\	po-	4b\	po-
8C/	-pu-	.	8G/	-pu-	8e\	-pu-	8cc\	-pu-
8C/	-lum	.	8G/	-lum	8e\	-lum	8cc\	-lum
2G\	su-	.	2G/	su-	2d\	su-	4cc\	su-
.	.	.	.	.	.	.	4b\	.
=20	=20	=20	=20	=20	=20	=20	=20	=20
1C	-um.	.	1G	-um.	1e	-um.	1cc	-um.
!	!	!	!LO:TX:b:t=Volti Subitto.	!	!LO:LB:g=original	!	!LO:LB:g=original	!
!	!	!	!LO:PB:g=original	!	!	!	!	!
=21||	=21||	=21||	=21||	=21||	=21||	=21||	=21||	=21||
*M4/4	*	*	*M4/4	*	*M4/4	*	*M4/4	*
*met(c)	*	*	*met(c)	*	*met(c)	*	*met(c)	*
!LO:TX:a:t=6.	!	!	!LO:TX:a:t=6.	!	!LO:TX:a:t=Solo.	!	!	!
00r	.	.	00r	.	4.a\	Tra-	4.cc\	Tra-
.	.	.	.	.	16g\LL	-di-	8b\	-di-
.	.	.	.	.	16f\JJ	.	.	.
.	.	.	.	.	4e\	-dit	4cc\	-dit
.	.	.	.	.	4f\	in	4dd\	in
=22	=22	=22	=22	=22	=22	=22	=22	=22
.	.	.	.	.	4f\	mor-	4dd\	mor-
.	.	.	.	.	4e\	-tem,	4cc\	-tem
.	.	.	.	.	[2a\	a-	2r	.
=23	=23	=23	=23	=23	=23	=23	=23	=23
.	.	.	.	.	8a\L]	.	2dd\	a-
.	.	.	.	.	16g#X\L	.	.	.
.	.	.	.	.	16f#X\JJ	.	.	.
.	.	.	.	.	8g#\L	.	.	.
.	.	.	.	.	8a\J	.	.	.
.	.	.	.	.	2b\	.	8dd\L	.
.	.	.	.	.	.	.	8cc\J	.
.	.	.	.	.	.	.	8b\L	.
.	.	.	.	.	.	.	16cc\L	.
.	.	.	.	.	.	.	16dd\JJ	.
!	!	!	!	!	!	!	!LO:LB:g=original	!
=24	=24	=24	=24	=24	=24	=24	=24	=24
.	.	.	.	.	8b\L	.	2cc\	.
.	.	.	.	.	16a\L	.	.	.
.	.	.	.	.	16g#X\JJ	.	.	.
.	.	.	.	.	8a\L	.	.	.
.	.	.	.	.	8e\J	.	.	.
.	.	.	.	.	[2f\	.	8cc\L	.
.	.	.	.	.	.	.	8b\J	.
.	.	.	.	.	.	.	8a\L	.
.	.	.	.	.	.	.	16b\L	.
.	.	.	.	.	.	.	16cc\JJ	.
!	!	!	!	!	!LO:LB:g=original	!	!	!
=25	=25	=25	=25	=25	=25	=25	=25	=25
0r	.	.	0r	.	8f\L]	.	4.b\	.
.	.	.	.	.	8e\J	.	.	.
.	.	.	.	.	8e\	-ni-	.	.
.	.	.	.	.	8d\	-mam	8b\	-ni-
.	.	.	.	.	8.c/L	su-	4a\	-mam
.	.	.	.	.	16B/Jk	.	.	.
.	.	.	.	.	4A/	-am,	[4cc\	a-
=26	=26	=26	=26	=26	=26	=26	=26	=26
.	.	.	.	.	4a\	a-	8cc\L]	.
.	.	.	.	.	.	.	8b\J	.
.	.	.	.	.	8g\	-ni-	8b\	-ni-
.	.	.	.	.	8f#X\	-mam	8a\	-mam
.	.	.	.	.	4e\	su-	4g\	su-
.	.	.	.	.	4d#X\	.	4f#X\	.
!	!	!	!	!	!	!	!LO:LB:g=original	!
=27	=27	=27	=27	=27	=27	=27	=27	=27
!LO:TX:a:t=Solo.	!	!	!LO:TX:a:t=Solo.	!	!	!	!	!
4.G\	Tra-	.	4.e\	tra-	4e\	-am,	4e/	-am,
.	.	.	.	.	4r	.	4r	.
8F#X\	-di-	.	16d\LL	-di-	.	.	.	.
.	.	.	16c\JJ	.	.	.	.	.
4G\	-dit	.	4B\	-dit	2r	.	2r	.
4A\	in	.	4c\	in	.	.	.	.
!LO:LB:g=original	!	!	!	!	!	!	!	!
=28||	=28||	=28||	=28||	=28||	=28	=28||	=28||	=28||
!	!	!	!	!	!LO:TX:a:t=4.	!	!LO:TX:a:t=6.	!
4A\	mor-	.	4c\	mor-	00r	.	00r	.
4G\	-tem	.	4B\	-tem	.	.	.	.
2r	.	.	[2e\	a-	.	.	.	.
=29	=29	=29	=29	=29	=29	=29	=29	=29
2A\	a-	.	8e\L]	.	.	.	.	.
.	.	.	16d#X\L	.	.	.	.	.
.	.	.	16c#X\JJ	.	.	.	.	.
.	.	.	8d#\L	.	.	.	.	.
.	.	.	8e\J	.	.	.	.	.
8A\L	.	.	[2f#X\	.	.	.	.	.
8G\J	.	.	.	.	.	.	.	.
8F#X\L	.	.	.	.	.	.	.	.
16G\L	.	.	.	.	.	.	.	.
16A\JJ	.	.	.	.	.	.	.	.
=30	=30	=30	=30	=30	=30	=30	=30	=30
2G\	.	.	8f#\L]	.	.	.	.	.
.	.	.	16e\L	.	.	.	.	.
.	.	.	16d#X\JJ	.	.	.	.	.
.	.	.	8e\L	.	.	.	.	.
.	.	.	8B\J	.	.	.	.	.
8G\L	.	.	2c\	.	.	.	.	.
8F#X\J	.	.	.	.	.	.	.	.
8E\L	.	.	.	.	.	.	.	.
16F#\L	.	.	.	.	.	.	.	.
16G\JJ	.	.	.	.	.	.	.	.
!	!	!	!LO:LB:g=original	!	!	!	!	!
=31	=31	=31	=31	=31	=31	=31	=31	=31
4F#X\	.	.	8c\L	.	.	.	.	.
.	.	.	8B\J	.	.	.	.	.
8F#\	-ni-	.	8B\	-ni-	.	.	.	.
8F#\	-mam	.	8A\	-mam	.	.	.	.
.	.	.	8qA/	.	.	.	.	.
!LO:LB:g=original	!	!	!	!	!	!	!	!
2E\	su-	.	2G/	su-	.	.	.	.
!	!	!	!	!	!LO:LB:g=original	!	!	!
=32	=32	=32	=32	=32	=32	=32	=32	=32
4D#X/	-am,	.	4F#X/	-am,	4r	.	0r	.
4BB/	et	.	4r	.	4f#X\	et	.	.
4D#/	in-	.	2r	.	4b\	in-	.	.
4F#X\	-ter	.	.	.	4a\	-ter	.	.
=33	=33	=33	=33	=33	=33	=33	=33	=33
!	!	!	!LO:TX:a:t=1	!	!	!	!	!
4E\	sce-	.	1r	.	4.g\	sce-	.	.
16E\LL	.	.	.	.	.	.	.	.
16F#X\	.	.	.	.	.	.	.	.
16G\	.	.	.	.	8b\	-le-	.	.
16A\JJ	.	.	.	.	.	.	.	.
.	.	.	.	.	4qqa/	.	.	.
4B\	.	.	.	.	2g#X\	-ra-	.	.
4B\	-le-	.	.	.	.	.	.	.
=34	=34	=34	=34	=34	=34	=34	=34	=34
8B\L	-ra-	.	4r	.	4a\	.	4r	.
16A\L	.	.	.	.	.	.	.	.
16G#X\JJ	.	.	.	.	.	.	.	.
4A\	-tos,	.	4E/	et	4e\	-tos	4a\	et
2r	.	.	4G#X/	in-	2r	.	4ee\	in-
.	.	.	4B\	-ter	.	.	4dd\	-ter
!LO:LB:g=original	!	!	!	!	!	!	!	!
=35	=35	=35	=35	=35	=35	=35	=35	=35
!LO:TX:a:t=1	!	!	!	!	!LO:TX:a:t=2.	!	!	!
1r	.	.	4A\	sce-	0r	.	4.cc\	sce-
.	.	.	16A\LL	.	.	.	.	.
.	.	.	16B\	.	.	.	.	.
.	.	.	16c\	.	.	.	8ee\	-le-
.	.	.	16d\JJ	.	.	.	.	.
.	.	.	.	.	.	.	4qqdd/	.
.	.	.	4e\	.	.	.	(2cc#X\	-ra-
.	.	.	4e\	-le-	.	.	.	.
!	!	!	!LO:LB:g=original	!	!	!	!LO:LB:g=original	!
=36	=36	=36	=36	=36	=36	=36	=36	=36
4r	.	.	8e\L	-ra-	.	.	4dd\)	.
.	.	.	16d\L	.	.	.	.	.
.	.	.	16c#X\JJ	.	.	.	.	.
4Fn\	re-	.	4d\	-tos	.	.	4a\	-ros
8F\L	.	.	2r	.	.	.	[2dd\	re-
8E\J	.	.	.	.	.	.	.	.
8F\L	-pu-	.	.	.	.	.	.	.
8D\J	.	.	.	.	.	.	.	.
=37	=37	=37	=37	=37	=37	=37	=37	=37
2E\	-ta-	.	2B\	re-	2g\	re-	4dd\]	.
.	.	.	.	.	.	.	4g\	-pu-
8E\L	.	.	2G/	-pu-	8g\L	.	[2cc\	-ta-
8D\	.	.	.	.	8f\J	.	.	.
8E\	.	.	.	.	8e\L	-pu-	.	.
8C\J	.	.	.	.	8g\J	.	.	.
=38	=38	=38	=38	=38	=38	=38	=38	=38
4.D\	.	.	2.d\	-ta-	2.f\	-ta-	4cc\]	.
.	.	.	.	.	.	.	8b\L	.
16E\LL	.	.	.	.	.	.	8a\J	.
16F\JJ	.	.	.	.	.	.	.	.
4.G\	.	.	.	.	.	.	4.b\	.
.	.	.	4d\	-tus	4f\	-tus	.	.
8G\	-tus	.	.	.	.	.	8b\	-tus
!LO:LB:g=original	!	!	!	!	!LO:LB:g=original	!	!	!
=39	=39	=39	=39	=39	=39	=39	=39	=39
4C/	est,	.	4c\	est,	4e\	est,	4cc\	est.
4r	.	.	4r	.	4c\	et	4r	.
2r	.	.	2r	.	[2g\	in-	4r	.
.	.	.	.	.	.	.	4dd\	et
!	!	!	!	!	!	!	!LO:PB:g=original	!
=40	=40	=40	=40	=40	=40	=40	=40	=40
!LO:TX:a:t=1	!	!	!LO:TX:a:t=1	!	!	!	!	!
1r	.	.	1r	.	8g\L]	.	4cc#X\	in-
.	.	.	.	.	8f\J	.	.	.
.	.	.	.	.	8e\L	-ter	8.cc#\L	-ter
.	.	.	.	.	8d\J	.	.	.
.	.	.	.	.	.	.	16dd\Jk	.
.	.	.	.	.	4c#X\	sce-	8ee\L	sce-
.	.	.	.	.	.	.	8dd\J	.
.	.	.	.	.	4g\	-le-	8dd\L	-le-
.	.	.	.	.	.	.	8cc#\J	.
!LO:TX:b:t=Volti Subitto&colon;	!	!	!	!	!	!	!	!
!LO:PB:g=original	!	!	!	!	!	!	!	!
=41	=41	=41	=41	=41	=41	=41	=41	=41
4r	.	.	2r	.	8.f\L	-ra-	4dd\	-ra-
.	.	.	.	.	16e\Jk	.	.	.
4D\	et	.	.	.	4d\	-tos	4a\	-tos
[2A\	in-	.	4r	.	2r	.	2r	.
.	.	.	4e\	et	.	.	.	.
!	!	!	!LO:LB:g=original	!	!LO:TX:b:t=Volti Subitto.	!	!	!
!	!	!	!	!	!LO:PB:g=original	!	!	!
=42	=42	=42	=42	=42	=42	=42	=42	=42
!	!	!	!	!	!LO:TX:a:t=1	!	!LO:TX:a:t=1	!
8A\L]	.	.	4d#X\	in-	1r	.	1r	.
8G\J	.	.	.	.	.	.	.	.
8F#X\L	-ter	.	8d#\L	-ter	.	.	.	.
8E\J	.	.	8e\J	.	.	.	.	.
4D#X\	sce-	.	8f#X\L	sce-	.	.	.	.
.	.	.	8e\J	.	.	.	.	.
4A\	-le-	.	8e\L	-le-	.	.	.	.
.	.	.	8d#\J	.	.	.	.	.
=43	=43	=43	=43	=43	=43	=43	=43	=43
8G\L	-ra-	.	4e\	-ra-	4.e\	re-	2r	.
8F#X\J	.	.	.	.	.	.	.	.
4E\	-tos	.	4B\	-tos	.	.	.	.
.	.	.	.	.	8f#X\	.	.	.
4D\	re-	.	2r	.	4g#X\	.	[2b\	re-
4D\	-pu-	.	.	.	4g#\	-pu-	.	.
!	!	!	!	!	!	!	!LO:LB:g=original	!
=44	=44	=44	=44	=44	=44	=44	=44	=44
2C/	-ta-	.	2.e\	re-	2a\	-ta-	4b\]	.
.	.	.	.	.	.	.	4e/	-pu-
8C/L	.	.	.	.	8a\L	.	[2a\	-ta-
8BB/	.	.	.	.	8e\	.	.	.
8C/	.	.	4c\	-pu-	8a\	.	.	.
8AA/J	.	.	.	.	8g\J	.	.	.
!LO:LB:g=original	!	!	!	!	!	!	!	!
=45	=45	=45	=45	=45	=45	=45	=45	=45
4.D\	.	.	4.f\	-ta-	2f\	.	4a\]	.
.	.	.	.	.	.	.	8dd\L	.
8E\	.	.	8d\	.	.	.	8cc\J	.
4Fn\	.	.	4d\	.	8f\L	.	4b\	.
.	.	.	.	.	16d\L	.	.	.
.	.	.	.	.	16e\JJ	.	.	.
4D\	.	.	4c\	.	8f\L	.	4a\	.
.	.	.	.	.	8d\J	.	.	.
!	!	!	!	!	!LO:LB:g=original	!	!	!
=46	=46	=46	=46	=46	=46	=46	=46	=46
4E\	.	.	2B\	.	4B/	.	2g#X\	.
4D\	.	.	.	.	4f\	.	.	.
8C\L	.	.	4c\	.	4e\	.	[2a\	.
8A\	.	.	.	.	.	.	.	.
8F\	.	.	4A\	.	4d\	.	.	.
8D\J	.	.	.	.	.	.	.	.
!	!	!	!LO:LB:g=original	!	!	!	!	!
=47	=47	=47	=47	=47	=47	=47	=47	=47
2.E\	.	.	2c\	.	4.c\	.	4a\]	.
.	.	.	.	.	.	.	8g#X/L	.
.	.	.	.	.	8d\	.	8f#X/J	.
.	.	.	4.B\	.	4.e\	.	4.g#\	.
4E\	-tus	.	.	.	.	.	.	.
.	.	.	8B\	-tus	8e\	-tus	8g#\	-tus
!	!	!	!	!	!	!	!LO:LB:g=original	!
=48	=48	=48	=48	=48	=48	=48	=48	=48
1AA	est.	.	1A	est.	1e	est,	1a	est,
=49||	=49||	=49||	=49||	=49||	=49||	=49||	=49||	=49||
!LO:TX:a:t=2	!	!	!LO:TX:a:t=2.	!	!	!	!	!
0r	.	.	0r	.	2r	.	8cc\	ut
.	.	.	.	.	.	.	8cc\	vi-
.	.	.	.	.	.	.	8cc\	-vi-
.	.	.	.	.	.	.	8b\	-fi-
.	.	.	.	.	8f\	ut	4a\	-ca-
.	.	.	.	.	8f\	vi-	.	.
.	.	.	.	.	8f\	-vi-	4a\	-ret
.	.	.	.	.	8e\	-fi-	.	.
!	!	!	!	!	!LO:LB:g=original	!	!	!
=50	=50	=50	=50	=50	=50	=50	=50	=50
.	.	.	.	.	4d\	-ca-	4dd\	po-
.	.	.	.	.	4d\	-ret	8dd\	-pu-
.	.	.	.	.	.	.	8cc\	-lum
.	.	.	.	.	4g\	po-	4b\	su-
.	.	.	.	.	8g\	-pu-	4b\	-um
.	.	.	.	.	8f\	-lum	.	.
!	!	!	!	!	!	!	!LO:LB:g=original	!
!LO:LB:g=original	!	!	!	!	!	!	!	!
=51	=51	=51	=51	=51	=51	=51	=51	=51
!LO:TX:a:t=tutti.	!	!	!LO:TX:a:t=tutti.	!	!	!	!	!
2r	.	.	8c\	ut	4e\	su-	8ee\	ut
.	.	.	8c\	vi-	.	.	8ee\	vi-
.	.	.	8c\	-vi-	4e\	-um,	8ee\	-vi-
.	.	.	8B\	-fi-	.	.	8dd\	-fi-
8F\	ut	f	4A\	-car-	8a\	ut	4cc\	-ca-
8F\	vi-	.	.	.	8a\	vi-	.	.
8F\	-vi-	.	4A\	-et	8a\	-vi-	4cc\	-ret
8E\	-fi-	.	.	.	8g\	-fi-	.	.
=52	=52	=52	=52	=52	=52	=52	=52	=52
4D\	-ca-	.	4d\	po-	4f\	-ca-	4ff\	po-
4D\	-ret	.	8d\	-pu-	4f\	-ret	8ff\	-pu-
.	.	.	8c\	-lum	.	.	8ee\	-lum
4G\	po-	.	4B\	su-	4g\	po-	4dd\	su-
8G\	-pu-	.	4B\	-um,	8g\	-pu-	4dd\	-um
8F\	-lum	.	.	.	8g\	-lum	.	.
!	!	!	!LO:LB:g=original	!	!LO:LB:g=original	!	!	!
=53	=53	=53	=53	=53	=53	=53	=53	=53
4E\	su-	.	8r	.	4g\	su-	8r	.
.	.	.	8B\	vi-	.	.	8ee\	vi-
8E\	-um,	.	8B\	-vi-	8g\	-um,	8ee\	-vi-
8E\	vi-	.	8B\	-fi-	8g\	vi-	8ee\	-fi-
8A\	-vi-	.	4c\	-ca-	8e\	-vi-	4cc\	-ca-
8A\	-fi-	.	.	.	8e\	-fi-	.	.
8F\	-ca-	.	4A\	-ret	8f\	-ca-	4dd\	-ret
8F\	-ret	.	.	.	8f\	-ret	.	.
!LO:LB:g=original	!	!	!	!	!	!	!LO:LB:g=original	!
=54	=54	=54	=54	=54	=54	=54	=54	=54
4G\	po-	.	4G/	po-	4d\	po-	4b\	po-
8C/	-pu-	.	8G/	-pu-	8e\	-pu-	8cc\	-pu-
8C/	-lum	.	8G/	-lum	8e\	-lum	8cc\	-lum
2G\	su-	.	2G/	su-	2d\	su-	4cc\	su-
.	.	.	.	.	.	.	4b\	.
=55	=55	=55	=55	=55	=55	=55	=55	=55
1C	-um.	.	1G	-um.	1e	-um.	1cc	-um.
==	==	==	==	==	==	==	==	==
*-	*-	*-	*-	*-	*-	*-	*-	*-
!!!system-decoration: [(s1,s2,s3,s4)]
!!!ENC: Berenika Jozajtis
!!!END: 2023-11-17
!!!ENC: Leszek Kubiak
!!!END: 2024-06-12
